X: 3769
T: Birthday Special
R: reel
M: 4/4
K: Aminor
|:EAAA BAGB|ABcd e^f gfe|dcBA GEDE|G3A Bdgd &LG,3|
edcB dcBA|LcBALc BALGE|LcBALc BALGE|LA2 LE2 LA,4:|
|:eaaa geLdg|ed^cA BAGB|A^c ccc BAB^c|A=c ccc BA^cd|
eaaa gedg|ed^cA BAGB|L^cBAL=c BAGE|LA2 LE2 LA,4:|

